packages/blockchain-info-components/src/Images/img/verify-notice.svg

<svg fill="none" height="89" viewBox="0 0 89 89" width="89" xmlns="http://www.w3.org/2000/svg" xmlns:xlink="http://www.w3.org/1999/xlink"><clipPath id="a"><path d="m.023438 15.2625h72v72h-72z"/></clipPath><clipPath id="b"><path d="m47.0234.262451h40v40h-40z"/></clipPath><clipPath id="c"><path d="m51.0234 4.26245h32v32h-32z"/></clipPath><g clip-path="url(#a)"><path clip-rule="evenodd" d="m64.038 43.3969 7.9854 9.0982-7.9854 9.0981 1.1127 12.0437-11.8145 2.6836-6.1855 10.4073-11.1273-4.7782-11.1272 4.8109-6.1855-10.4073-11.81454-2.6836 1.11273-12.0764-7.9854525-9.0981 7.9854525-9.131-1.11273-12.0436 11.81454-2.6509 6.1855-10.4073 11.1272 4.7782 11.1273-4.7782 6.1855 10.4073 11.8145 2.6836zm-40.0301 5.8988 6.8655 6.8655 17.4454-17.4289 4.9256 4.9255-22.3716 22.3716-11.8167-11.8167z" fill="#0c6cf2" fill-rule="evenodd"/></g><g clip-path="url(#b)"><circle cx="67.0234" cy="20.2625" fill="#fff" r="20"/><g clip-path="url(#c)"><path d="m67.0234 4.26245c-8.832 0-16 7.16805-16 16.00005s7.168 16 16 16 16-7.168 16-16-7.168-16.00005-16-16.00005zm1.6 24.00005h-3.2v-9.6h3.2zm0-12.8h-3.2v-3.2h3.2z" fill="#ffa133"/></g></g></svg>

<svg width="89" height="89" viewBox="0 0 89 89" fill="none" xmlns="http://www.w3.org/2000/svg">
<g clip-path="url(#clip0_777_10826)">
<path fill-rule="evenodd" clip-rule="evenodd" d="M64.038 43.3969L72.0234 52.4951L64.038 61.5932L65.1507 73.6369L53.3362 76.3205L47.1507 86.7278L36.0234 81.9496L24.8962 86.7605L18.7107 76.3532L6.89616 73.6696L8.00889 61.5932L0.0234375 52.4951L8.00889 43.3641L6.89616 31.3205L18.7107 28.6696L24.8962 18.2623L36.0234 23.0405L47.1507 18.2623L53.3362 28.6696L65.1507 31.3532L64.038 43.3969ZM24.0079 49.2957L30.8734 56.1612L48.3188 38.7323L53.2444 43.6578L30.8728 66.0294L19.0561 54.2127L24.0079 49.2957Z" fill="#0C6CF2"/>
</g>
<g clip-path="url(#clip1_777_10826)">
<circle cx="67.0234" cy="20.2625" r="20" fill="white"/>
<g clip-path="url(#clip2_777_10826)">
<path d="M67.0234 4.26245C58.1914 4.26245 51.0234 11.4305 51.0234 20.2625C51.0234 29.0945 58.1914 36.2625 67.0234 36.2625C75.8554 36.2625 83.0234 29.0945 83.0234 20.2625C83.0234 11.4305 75.8554 4.26245 67.0234 4.26245ZM68.6234 28.2625H65.4234V18.6625H68.6234V28.2625ZM68.6234 15.4625H65.4234V12.2625H68.6234V15.4625Z" fill="#FFA133"/>
</g>
</g>
<defs>
<clipPath id="clip0_777_10826">
<rect width="72" height="72" fill="white" transform="translate(0.0234375 15.2625)"/>
</clipPath>
<clipPath id="clip1_777_10826">
<rect width="40" height="40" fill="white" transform="translate(47.0234 0.262451)"/>
</clipPath>
<clipPath id="clip2_777_10826">
<rect width="32" height="32" fill="white" transform="translate(51.0234 4.26245)"/>
</clipPath>
</defs>
</svg>
